X: 8936
T: Curragh Races, The
R: reel
M: 4/4
K: Adorian
|:eAcA eAcA|G2 BG dGBG|eAcA efge|dBGA BA A2|
eAcA eAcA|G2 BG dGAB|c2 cA B2 ge|dBGB A4:|
|:c2 ec gcec|c2 ec dBGB|c2 ec gcec|dBGA BAAB|
c2 ec gcec|~g3e dBGB|c2 cA B2 ge|dBGB A4:|

